dist/img/quote.svg

<svg width="39" height="30" viewBox="0 0 39 30" fill="none" xmlns="http://www.w3.org/2000/svg">
<path d="M14.9023 0.886719L20.7617 5.22266C16.3867 10.6914 13.6719 16.043 12.6172 21.2773L11.2109 29.1289H0.664062L1.71875 22.5664C3.125 13.8945 7.51953 6.66797 14.9023 0.886719ZM32.7734 0.886719L38.6328 5.22266C34.2578 10.6914 31.543 16.043 30.4883 21.2773L29.082 29.1289H18.5352L19.5898 22.5664C20.9961 13.8945 25.3906 6.66797 32.7734 0.886719Z" fill="#B7BABC"/>
</svg>

<svg width="39" height="30" fill="none" xmlns="http://www.w3.org/2000/svg"><path d="M14.902.887l5.86 4.336c-4.375 5.468-7.09 10.82-8.145 16.054l-1.406 7.852H.664l1.055-6.563c1.406-8.671 5.8-15.898 13.183-21.68zm17.871 0l5.86 4.336c-4.375 5.468-7.09 10.82-8.145 16.054l-1.406 7.852H18.535l1.055-6.563c1.406-8.671 5.8-15.898 13.183-21.68z" fill="#B7BABC"/></svg>
